apps/userve/src/images/usx_medal.svg

<svg width="14" height="14" viewBox="0 0 14 14" fill="none" xmlns="http://www.w3.org/2000/svg">
<path d="M13.2529 2.83995C13.2301 2.75482 13.1907 2.67504 13.137 2.60524C13.0832 2.53544 13.0161 2.47699 12.9396 2.43328L9.47291 0.433279C9.39722 0.388924 9.31351 0.359944 9.2266 0.348002C9.13969 0.33606 9.05127 0.34139 8.96642 0.363686C8.88157 0.385983 8.80196 0.424807 8.73214 0.477933C8.66233 0.531059 8.60368 0.597443 8.55957 0.673279L6.99957 3.37995L5.43957 0.673279C5.39547 0.597443 5.33682 0.531059 5.26701 0.477933C5.19719 0.424807 5.11758 0.385983 5.03273 0.363686C4.94788 0.34139 4.85946 0.33606 4.77255 0.348002C4.68563 0.359944 4.60193 0.388924 4.52624 0.433279L1.05957 2.43328C0.983062 2.47699 0.915975 2.53544 0.862193 2.60524C0.808411 2.67504 0.769 2.75482 0.746241 2.83995C0.702119 3.00891 0.726056 3.18844 0.812908 3.33995L3.47957 7.89328C3.18207 8.43831 3.0176 9.04594 2.99957 9.66661C2.99799 10.2721 3.1339 10.8701 3.39705 11.4155C3.66021 11.9608 4.04375 12.4393 4.51874 12.8149C4.99374 13.1904 5.5478 13.4532 6.13916 13.5835C6.73051 13.7137 7.34371 13.708 7.93253 13.5668C8.52136 13.4255 9.07043 13.1525 9.53836 12.7681C10.0063 12.3838 10.3808 11.8983 10.6338 11.3481C10.8868 10.7979 11.0115 10.1975 10.9987 9.59215C10.9858 8.98677 10.8357 8.3922 10.5596 7.85328L13.1596 3.34661C13.208 3.27257 13.2411 3.18965 13.2572 3.10266C13.2732 3.01567 13.2717 2.92637 13.2529 2.83995ZM2.33291 3.25328L4.63957 1.91995L6.78624 5.66661C5.87119 5.72315 5.0041 6.09543 4.33291 6.71995L2.33291 3.25328ZM6.99957 12.3333C6.29233 12.3333 5.61405 12.0523 5.11396 11.5522C4.61386 11.0521 4.33291 10.3739 4.33291 9.66661C4.33291 8.95937 4.61386 8.28109 5.11396 7.78099C5.61405 7.2809 6.29233 6.99995 6.99957 6.99995C7.70682 6.99995 8.3851 7.2809 8.88519 7.78099C9.38529 8.28109 9.66624 8.95937 9.66624 9.66661C9.66624 10.3739 9.38529 11.0521 8.88519 11.5522C8.3851 12.0523 7.70682 12.3333 6.99957 12.3333ZM9.66624 6.69995C9.30429 6.36935 8.88374 6.10933 8.42624 5.93328L7.77291 4.71328L9.38624 1.91995L11.6929 3.25328L9.66624 6.69995Z" fill="#000EB8"/>
</svg>

<?xml version="1.0" encoding="utf-8"?>
<!-- Generator: Adobe Illustrator 26.2.1, SVG Export Plug-In . SVG Version: 6.00 Build 0)  -->
<svg version="1.1" id="Layer_1" xmlns="http://www.w3.org/2000/svg" xmlns:xlink="http://www.w3.org/1999/xlink" x="0px" y="0px"
	 viewBox="0 0 14 14" style="enable-background:new 0 0 14 14;" xml:space="preserve">
<style type="text/css">
	.st0{fill:#232526;}
</style>
<path class="st0" d="M13.3,2.8c0-0.1-0.1-0.2-0.1-0.2c-0.1-0.1-0.1-0.1-0.2-0.2l-3.5-2c-0.1,0-0.2-0.1-0.2-0.1c-0.1,0-0.2,0-0.3,0
	S8.8,0.4,8.8,0.4C8.7,0.5,8.6,0.6,8.6,0.7L7,3.4L5.4,0.7c0-0.1-0.1-0.1-0.2-0.2c0-0.1-0.1-0.1-0.2-0.1s-0.2,0-0.3,0
	c-0.1,0-0.2,0-0.2,0.1L1,2.5c0,0-0.1,0-0.1,0.1C0.8,2.7,0.8,2.8,0.7,2.8c0,0.2,0,0.3,0.1,0.5l2.7,4.6C3.2,8.4,3,9,3,9.7
	c0,0.6,0.1,1.2,0.4,1.7s0.6,1,1.1,1.4s1,0.6,1.6,0.8c0.6,0.1,1.2,0.1,1.8,0c0.6-0.1,1.1-0.4,1.6-0.8c0.5-0.4,0.8-0.9,1.1-1.4
	c0.3-0.6,0.4-1.2,0.4-1.8s-0.2-1.2-0.4-1.7l2.6-4.5c0-0.1,0.1-0.2,0.1-0.2C13.3,3,13.3,2.9,13.3,2.8z M2.3,3.3L4.6,2l2.1,3.7
	c-0.8,0-1.7,0.4-2.4,1L2.3,3.3z M7,12.3c-0.7,0-1.4-0.3-1.9-0.8s-0.8-1.2-0.8-1.9s0.3-1.4,0.8-1.9C5.6,7.3,6.3,7,7,7
	s1.4,0.3,1.9,0.8S9.7,9,9.7,9.7s-0.3,1.4-0.8,1.9C8.4,12.1,7.7,12.3,7,12.3z M9.7,6.7C9.3,6.4,8.9,6.1,8.4,5.9L7.8,4.7l1.6-2.8
	l2.3,1.3L9.7,6.7z"/>
</svg>
